X:4
T:The Water Is Wide (D minor)
C:Traditional English/Scottish, PD; arranged for D natural minor
M:4/4
L:1/4
Q:1/4=80
K:Dmin
A | A3/2 c/ A F | G3 E | F G A B | c4 |
c3/2 c/ c A | c d c A | G3/2 A/ G F | A4 |
A3/2 c/ A F | G3 E | F G A c | d4 |
c c d c | B A G F | F3/2 G/ F2- | F4 |
